X:14
T:The Auld Fiddler
M:C
L:1/8
C:Billy McGuire
S:Arr G Blair
R:Reel
K:A
eg|a2 ed cdBc|ABcd eaga|beee c'eee|d'ec'e befg|
a2 ed cdBc|ABcd eaga|beee _e=ede|ceBe A2:||:
GA|BEEE BEcE|dEeE dEcE|BEEE BEcE|dBGB A2 GA|
BEEE cEEE|dEeE dEcE|BEEE _E=EDE|CEB,E A,2 GA|
BEEE BEcE|dEeE dEcE|BEEE BEcE|dBGB A2 GA|
BEEE cEEE|dEeE fEgE|1 aeee _e=ede|ceBe A2:||2aeee _e=e_e=e|
_e=efg a2||
